X:1
T:Sir John Stainer
T:Sebaste
%%score { ( 1 2 ) | ( 3 4 ) }
L:1/8
Q:1/4=184
M:4/2
K:Eb
V:1 treble 
V:2 treble 
V:3 bass 
V:4 bass 
V:1
"^Presto" G16 A4 B4 G8 | c16 B4 E4 G4 F4 F8 | e6 e2 d4 c4 | B4 E4 B4 A4 | (G4 E4) F8 | E8 | %6
 G16 A4 B4 G8 | c16 B4 E4 G4 F4 F8 | e4 | e6 e2 d4 c4 | B4 E4 B4 A4 | (G4 E4) F6 E2 | E8 | %13
 G16 A4 B4 G8 | c4 | B4 E4 G4 F4 | F8 | e8 d4 c4 | B8 B2 B2 A4 | G8 F8 | B16 | e4 e2 e2 d4 c4 | %22
 B4 E4 B4 A4 | G8 F8 | E16 | E8 E8 |] %26
V:2
 E16 F4 F4 E8 | E16 E4 E4 E4 E4 D8 | E6 E2 E4 E4 | E4 E4 G4 F4 | (E4 B,4) D8 | E8 | E16 F4 F4 E8 | %7
 E16 E4 E4 E4 E4 D8 | E4 | E6 E2 E4 E4 | E4 E4 G4 F4 | (E4 B,4) D6 E2 | E8 | E16 F4 F4 E8 | E4 | %15
 E4 E4 E4 E4 | D8 | E8 E4 E4 | E8 G2 G2 F4 | E8 D8 | (E8 A8) | G4 G2 G2 G4 A4 | E4 E4 G4 F4 | %23
 E8 D8 | E16 | C8 B,8 |] %26
V:3
 B,16 C4 B,4 B,8 | A,16 B,4 B,4 B,4 =A,4 B,8 | G,6 G,2 G,4 A,4 | B,4 G,4 C4 C4 | (B,4 G,4) A,8 | %5
 G,8 | B,16 C4 B,4 B,8 | A,16 B,4 B,4 B,4 =A,4 B,8 | G,4 | G,6 G,2 G,4 A,4 | B,4 G,4 C4 C4 | %11
 (B,4 G,4) A,6 G,2 | G,8 | B,16 C4 B,4 B,8 | A,4 | B,4 B,4 B,4 =A,4 | B,8 | G,8 G,4 A,4 | %18
 B,8 C2 C2 C4 | B,8 B,8 | (B,8 D8) | E4 E2 E2 E4 E4 | E4 B,4 C4 C4 | B,8 A,8 | G,16 | A,8 G,8 |] %26
V:4
 E,16 E,4 D,4 E,8 | A,16 G,4 G,4 C,4 F,4 B,,8 | C,6 C,2 B,,4 A,,4 | G,,4 C,4 A,,4 A,,4 | %4
 B,,8 B,,8 | E,8 | E,16 E,4 D,4 E,8 | A,16 G,4 G,4 C,4 F,4 B,,8 | C,4 | C,6 C,2 B,,4 A,,4 | %10
 G,,4 C,4 A,,4 A,,4 | B,,8 B,,6 E,2 | E,8 | E,16 E,4 D,4 E,8 | A,4 | G,4 G,4 C,4 F,4 | B,,8 | %17
 C,8 B,,4 A,,4 | G,,8 A,,2 A,,2 F,4 | B,8 A,8 | (G,8 F,8) | E,4 C2 C2 B,4 A,4 | G,4 G,4 A,4 A,4 | %23
 B,8 B,,8 | E,16 | A,,8 E,8 |] %26

